X: 100035
M: 2/4
L: 1/16
K: F
z2 |\
(vAB=Bc) (dcAF) | (Ad) c4 B>A |(Bf) e4 d>c | (dcAF) (DC=B,C) |
(GFEF) (BAGB) | (Ad) c4 B>A | (B<f)e2- e>dB>G | [F2A,2][F2A,2][F2A,2] :|
K: C
|: z2 |\
ue2c>a (^fg)ec | e2c>a (^fg)ec | c'2b>a g2^f>g | a2(g>e) d2g2 |
e2c>a (^fg)ec | e2c>a (^fg)ec | c'2b>a (ge')d'c' | d'2c'2c'2 "^D.C.":|
K: Bb
|: (3uFFF |\


